images/3235322.svg

<?xml version="1.0" encoding="UTF-8"?>
<svg xmlns="http://www.w3.org/2000/svg" xmlns:xlink="http://www.w3.org/1999/xlink" width="300pt" height="300pt" viewBox="0 0 300 300" version="1.1">
<defs>
<g>
<symbol overflow="visible" id="glyph0-0">
<path style="stroke:none;" d="M 0.59375 2.125 L 0.59375 -8.46875 L 6.59375 -8.46875 L 6.59375 2.125 Z M 1.265625 1.453125 L 5.9375 1.453125 L 5.9375 -7.78125 L 1.265625 -7.78125 Z M 1.265625 1.453125 "/>
</symbol>
<symbol overflow="visible" id="glyph0-1">
<path style="stroke:none;" d="M 1.171875 -8.75 L 2.765625 -8.75 L 6.65625 -1.4375 L 6.65625 -8.75 L 7.796875 -8.75 L 7.796875 0 L 6.203125 0 L 2.328125 -7.3125 L 2.328125 0 L 1.171875 0 Z M 1.171875 -8.75 "/>
</symbol>
</g>
</defs>
<g id="surface49161">
<rect x="0" y="0" width="300" height="300" style="fill:rgb(100%,100%,100%);fill-opacity:1;stroke:none;"/>
<path style="fill:none;stroke-width:1.2;stroke-linecap:butt;stroke-linejoin:miter;stroke:rgb(0%,0%,0%);stroke-opacity:1;stroke-miterlimit:10;" d="M 59.621094 163.484375 L 60.296875 134.167969 "/>
<path style="fill:none;stroke-width:1.2;stroke-linecap:butt;stroke-linejoin:miter;stroke:rgb(0%,0%,0%);stroke-opacity:1;stroke-miterlimit:10;" d="M 60.296875 134.167969 L 35.25 118.925781 "/>
<path style="fill:none;stroke-width:1.2;stroke-linecap:butt;stroke-linejoin:miter;stroke:rgb(0%,0%,0%);stroke-opacity:1;stroke-miterlimit:10;" d="M 61.378906 126.75 L 41.339844 114.558594 "/>
<path style="fill:none;stroke-width:1.2;stroke-linecap:butt;stroke-linejoin:miter;stroke:rgb(0%,0%,0%);stroke-opacity:1;stroke-miterlimit:10;" d="M 86.023438 120.097656 L 60.296875 134.167969 "/>
<path style="fill:none;stroke-width:1.2;stroke-linecap:butt;stroke-linejoin:miter;stroke:rgb(0%,0%,0%);stroke-opacity:1;stroke-miterlimit:10;" d="M 35.25 118.925781 L 35.925781 89.613281 "/>
<path style="fill:none;stroke-width:1.2;stroke-linecap:butt;stroke-linejoin:miter;stroke:rgb(0%,0%,0%);stroke-opacity:1;stroke-miterlimit:10;" d="M 35.925781 89.613281 L 61.652344 75.539062 "/>
<path style="fill:none;stroke-width:1.2;stroke-linecap:butt;stroke-linejoin:miter;stroke:rgb(0%,0%,0%);stroke-opacity:1;stroke-miterlimit:10;" d="M 41.808594 94.257812 L 62.390625 83 "/>
<path style="fill:none;stroke-width:1.2;stroke-linecap:butt;stroke-linejoin:miter;stroke:rgb(0%,0%,0%);stroke-opacity:1;stroke-miterlimit:10;" d="M 61.652344 75.539062 L 86.703125 90.785156 "/>
<path style="fill:none;stroke-width:1.2;stroke-linecap:butt;stroke-linejoin:miter;stroke:rgb(0%,0%,0%);stroke-opacity:1;stroke-miterlimit:10;" d="M 86.703125 90.785156 L 86.023438 120.097656 "/>
<path style="fill:none;stroke-width:1.2;stroke-linecap:butt;stroke-linejoin:miter;stroke:rgb(0%,0%,0%);stroke-opacity:1;stroke-miterlimit:10;" d="M 79.734375 93.554688 L 79.195312 117.007812 "/>
<path style="fill:none;stroke-width:1.2;stroke-linecap:butt;stroke-linejoin:miter;stroke:rgb(0%,0%,0%);stroke-opacity:1;stroke-miterlimit:10;" d="M 86.023438 120.097656 L 111.074219 135.34375 "/>
<path style="fill:none;stroke-width:1.2;stroke-linecap:butt;stroke-linejoin:miter;stroke:rgb(0%,0%,0%);stroke-opacity:1;stroke-miterlimit:10;" d="M 111.074219 135.34375 L 110.734375 150 "/>
<path style="fill:none;stroke-width:1.2;stroke-linecap:butt;stroke-linejoin:miter;stroke:rgb(0%,0%,100%);stroke-opacity:1;stroke-miterlimit:10;" d="M 110.734375 150 L 110.394531 164.65625 "/>
<path style="fill:none;stroke-width:1.2;stroke-linecap:butt;stroke-linejoin:miter;stroke:rgb(0%,0%,0%);stroke-opacity:1;stroke-miterlimit:10;" d="M 117.902344 138.433594 L 117.632812 150.160156 "/>
<path style="fill:none;stroke-width:1.2;stroke-linecap:butt;stroke-linejoin:miter;stroke:rgb(0%,0%,100%);stroke-opacity:1;stroke-miterlimit:10;" d="M 117.632812 150.160156 L 117.359375 161.886719 "/>
<path style="fill:none;stroke-width:1.2;stroke-linecap:butt;stroke-linejoin:miter;stroke:rgb(0%,0%,100%);stroke-opacity:1;stroke-miterlimit:10;" d="M 136.796875 121.273438 L 123.9375 128.308594 "/>
<path style="fill:none;stroke-width:1.2;stroke-linecap:butt;stroke-linejoin:miter;stroke:rgb(0%,0%,0%);stroke-opacity:1;stroke-miterlimit:10;" d="M 123.9375 128.308594 L 111.074219 135.34375 "/>
<path style="fill:none;stroke-width:1.2;stroke-linecap:butt;stroke-linejoin:miter;stroke:rgb(0%,0%,100%);stroke-opacity:1;stroke-miterlimit:10;" d="M 110.394531 164.65625 L 122.921875 172.277344 "/>
<path style="fill:none;stroke-width:1.2;stroke-linecap:butt;stroke-linejoin:miter;stroke:rgb(0%,0%,0%);stroke-opacity:1;stroke-miterlimit:10;" d="M 122.921875 172.277344 L 135.445312 179.902344 "/>
<path style=" stroke:none;fill-rule:nonzero;fill:rgb(100%,100%,100%);fill-opacity:1;" d="M 106.394531 157.65625 L 115.394531 157.65625 L 115.394531 171.65625 L 106.394531 171.65625 Z M 106.394531 157.65625 "/>
<g style="fill:rgb(0%,0%,100%);fill-opacity:1;">
  <use xlink:href="#glyph0-1" x="106.394531" y="168.794922"/>
</g>
<path style="fill:none;stroke-width:1.2;stroke-linecap:butt;stroke-linejoin:miter;stroke:rgb(0%,0%,0%);stroke-opacity:1;stroke-miterlimit:10;" d="M 135.445312 179.902344 L 134.765625 209.214844 "/>
<path style="fill:none;stroke-width:1.2;stroke-linecap:butt;stroke-linejoin:miter;stroke:rgb(0%,0%,0%);stroke-opacity:1;stroke-miterlimit:10;" d="M 142.273438 182.992188 L 141.730469 206.445312 "/>
<path style="fill:none;stroke-width:1.2;stroke-linecap:butt;stroke-linejoin:miter;stroke:rgb(0%,0%,0%);stroke-opacity:1;stroke-miterlimit:10;" d="M 161.171875 165.832031 L 135.445312 179.902344 "/>
<path style="fill:none;stroke-width:1.2;stroke-linecap:butt;stroke-linejoin:miter;stroke:rgb(0%,0%,0%);stroke-opacity:1;stroke-miterlimit:10;" d="M 134.765625 209.214844 L 159.816406 224.460938 "/>
<path style="fill:none;stroke-width:1.2;stroke-linecap:butt;stroke-linejoin:miter;stroke:rgb(0%,0%,0%);stroke-opacity:1;stroke-miterlimit:10;" d="M 159.816406 224.460938 L 185.542969 210.386719 "/>
<path style="fill:none;stroke-width:1.2;stroke-linecap:butt;stroke-linejoin:miter;stroke:rgb(0%,0%,0%);stroke-opacity:1;stroke-miterlimit:10;" d="M 159.078125 217 L 179.65625 205.742188 "/>
<path style="fill:none;stroke-width:1.2;stroke-linecap:butt;stroke-linejoin:miter;stroke:rgb(0%,0%,0%);stroke-opacity:1;stroke-miterlimit:10;" d="M 185.542969 210.386719 L 186.21875 181.074219 "/>
<path style="fill:none;stroke-width:1.2;stroke-linecap:butt;stroke-linejoin:miter;stroke:rgb(0%,0%,0%);stroke-opacity:1;stroke-miterlimit:10;" d="M 186.21875 181.074219 L 161.171875 165.832031 "/>
<path style="fill:none;stroke-width:1.2;stroke-linecap:butt;stroke-linejoin:miter;stroke:rgb(0%,0%,0%);stroke-opacity:1;stroke-miterlimit:10;" d="M 180.128906 185.441406 L 160.089844 173.25 "/>
<path style="fill:none;stroke-width:1.2;stroke-linecap:butt;stroke-linejoin:miter;stroke:rgb(0%,0%,0%);stroke-opacity:1;stroke-miterlimit:10;" d="M 161.171875 165.832031 L 161.847656 136.515625 "/>
<path style="fill:none;stroke-width:1.2;stroke-linecap:butt;stroke-linejoin:miter;stroke:rgb(0%,0%,0%);stroke-opacity:1;stroke-miterlimit:10;" d="M 161.847656 136.515625 L 149.324219 128.894531 "/>
<path style="fill:none;stroke-width:1.2;stroke-linecap:butt;stroke-linejoin:miter;stroke:rgb(0%,0%,100%);stroke-opacity:1;stroke-miterlimit:10;" d="M 149.324219 128.894531 L 136.796875 121.273438 "/>
<path style="fill:none;stroke-width:1.2;stroke-linecap:butt;stroke-linejoin:miter;stroke:rgb(0%,0%,0%);stroke-opacity:1;stroke-miterlimit:10;" d="M 155.753906 140.886719 L 145.734375 134.789062 "/>
<path style="fill:none;stroke-width:1.2;stroke-linecap:butt;stroke-linejoin:miter;stroke:rgb(0%,0%,100%);stroke-opacity:1;stroke-miterlimit:10;" d="M 145.734375 134.789062 L 135.714844 128.691406 "/>
<path style="fill:none;stroke-width:1.2;stroke-linecap:butt;stroke-linejoin:miter;stroke:rgb(0%,0%,0%);stroke-opacity:1;stroke-miterlimit:10;" d="M 161.847656 136.515625 L 174.710938 129.480469 "/>
<path style="fill:none;stroke-width:1.2;stroke-linecap:butt;stroke-linejoin:miter;stroke:rgb(0%,0%,100%);stroke-opacity:1;stroke-miterlimit:10;" d="M 174.710938 129.480469 L 187.574219 122.445312 "/>
<path style=" stroke:none;fill-rule:nonzero;fill:rgb(100%,100%,100%);fill-opacity:1;" d="M 132.796875 114.273438 L 141.796875 114.273438 L 141.796875 128.273438 L 132.796875 128.273438 Z M 132.796875 114.273438 "/>
<g style="fill:rgb(0%,0%,100%);fill-opacity:1;">
  <use xlink:href="#glyph0-1" x="132.796875" y="125.412109"/>
</g>
<path style="fill:none;stroke-width:1.2;stroke-linecap:butt;stroke-linejoin:miter;stroke:rgb(0%,0%,100%);stroke-opacity:1;stroke-miterlimit:10;" d="M 187.574219 122.445312 L 200.097656 130.066406 "/>
<path style="fill:none;stroke-width:1.2;stroke-linecap:butt;stroke-linejoin:miter;stroke:rgb(0%,0%,0%);stroke-opacity:1;stroke-miterlimit:10;" d="M 200.097656 130.066406 L 212.621094 137.6875 "/>
<path style="fill:none;stroke-width:1.2;stroke-linecap:butt;stroke-linejoin:miter;stroke:rgb(0%,0%,0%);stroke-opacity:1;stroke-miterlimit:10;" d="M 188.25 93.128906 L 187.910156 107.789062 "/>
<path style="fill:none;stroke-width:1.2;stroke-linecap:butt;stroke-linejoin:miter;stroke:rgb(0%,0%,100%);stroke-opacity:1;stroke-miterlimit:10;" d="M 187.910156 107.789062 L 187.574219 122.445312 "/>
<path style=" stroke:none;fill-rule:nonzero;fill:rgb(100%,100%,100%);fill-opacity:1;" d="M 183.574219 115.445312 L 192.574219 115.445312 L 192.574219 129.445312 L 183.574219 129.445312 Z M 183.574219 115.445312 "/>
<g style="fill:rgb(0%,0%,100%);fill-opacity:1;">
  <use xlink:href="#glyph0-1" x="183.574219" y="126.583984"/>
</g>
<path style="fill:none;stroke-width:1.2;stroke-linecap:butt;stroke-linejoin:miter;stroke:rgb(0%,0%,0%);stroke-opacity:1;stroke-miterlimit:10;" d="M 212.621094 137.6875 L 238.347656 123.617188 "/>
<path style="fill:none;stroke-width:1.2;stroke-linecap:butt;stroke-linejoin:miter;stroke:rgb(0%,0%,0%);stroke-opacity:1;stroke-miterlimit:10;" d="M 238.347656 123.617188 L 238.6875 108.960938 "/>
<path style="fill:none;stroke-width:1.2;stroke-linecap:butt;stroke-linejoin:miter;stroke:rgb(0%,0%,100%);stroke-opacity:1;stroke-miterlimit:10;" d="M 238.6875 108.960938 L 239.023438 94.304688 "/>
<path style="fill:none;stroke-width:1.2;stroke-linecap:butt;stroke-linejoin:miter;stroke:rgb(0%,0%,100%);stroke-opacity:1;stroke-miterlimit:10;" d="M 239.023438 94.304688 L 226.5 86.679688 "/>
<path style="fill:none;stroke-width:1.2;stroke-linecap:butt;stroke-linejoin:miter;stroke:rgb(0%,0%,0%);stroke-opacity:1;stroke-miterlimit:10;" d="M 226.5 86.679688 L 213.976562 79.058594 "/>
<path style="fill:none;stroke-width:1.2;stroke-linecap:butt;stroke-linejoin:miter;stroke:rgb(0%,0%,100%);stroke-opacity:1;stroke-miterlimit:10;" d="M 239.023438 94.304688 L 251.886719 87.265625 "/>
<path style="fill:none;stroke-width:1.2;stroke-linecap:butt;stroke-linejoin:miter;stroke:rgb(0%,0%,0%);stroke-opacity:1;stroke-miterlimit:10;" d="M 251.886719 87.265625 L 264.75 80.230469 "/>
<path style=" stroke:none;fill-rule:nonzero;fill:rgb(100%,100%,100%);fill-opacity:1;" d="M 235.023438 87.304688 L 244.023438 87.304688 L 244.023438 101.304688 L 235.023438 101.304688 Z M 235.023438 87.304688 "/>
<g style="fill:rgb(0%,0%,100%);fill-opacity:1;">
  <use xlink:href="#glyph0-1" x="235.023438" y="98.443359"/>
</g>
<path style="fill:none;stroke-width:1.2;stroke-linecap:butt;stroke-linejoin:miter;stroke:rgb(0%,0%,0%);stroke-opacity:1;stroke-miterlimit:10;" d="M 213.976562 79.058594 L 188.25 93.128906 "/>
</g>
</svg>

<svg xmlns="http://www.w3.org/2000/svg" xmlns:xlink="http://www.w3.org/1999/xlink" width="300pt" height="300pt" viewBox="0 0 300 300"><defs><symbol overflow="visible"><path d="M.594 2.125V-8.47h6V2.126zm.672-.672h4.671V-7.78h-4.67zm0 0"/></symbol><symbol overflow="visible" id="a"><path d="M1.172-8.75h1.594l3.89 7.313V-8.75h1.14V0H6.204L2.328-7.313V0H1.172zm0 0"/></symbol></defs><g><path fill="#fff" d="M0 0h300v300H0z"/><path d="M59.62 163.484l.677-29.316M60.297 134.168L35.25 118.926M61.38 126.75l-20.04-12.19M86.023 120.098l-25.726 14.07M35.25 118.926l.676-29.313M35.926 89.613L61.652 75.54M41.81 94.258L62.39 83M61.652 75.54l25.05 15.245M86.703 90.785l-.68 29.313M79.734 93.555l-.54 23.453M86.023 120.098l25.05 15.246M111.074 135.344l-.34 14.656" stroke-width="1.2" stroke="#000" stroke-miterlimit="10" fill="none"/><path d="M110.734 150l-.34 14.656" stroke-width="1.2" stroke="#00f" stroke-miterlimit="10" fill="none"/><path d="M117.902 138.434l-.27 11.726" stroke-width="1.2" stroke="#000" stroke-miterlimit="10" fill="none"/><path d="M117.633 150.16l-.274 11.727M136.797 121.273l-12.86 7.036" stroke-width="1.2" stroke="#00f" stroke-miterlimit="10" fill="none"/><path d="M123.938 128.31l-12.864 7.034" stroke-width="1.2" stroke="#000" stroke-miterlimit="10" fill="none"/><path d="M110.395 164.656l12.527 7.62" stroke-width="1.2" stroke="#00f" stroke-miterlimit="10" fill="none"/><path d="M122.922 172.277l12.523 7.625" stroke-width="1.2" stroke="#000" stroke-miterlimit="10" fill="none"/><path d="M106.395 157.656h9v14h-9zm0 0" fill="#fff"/><use xlink:href="#a" x="106.395" y="168.795" fill="#00f"/><path d="M135.445 179.902l-.68 29.313M142.273 182.992l-.543 23.453M161.172 165.832l-25.727 14.07M134.766 209.215l25.05 15.246M159.816 224.46l25.727-14.073M159.078 217l20.578-11.258M185.543 210.387l.676-29.313M186.22 181.074l-25.048-15.242M180.13 185.44l-20.04-12.19M161.172 165.832l.676-29.316M161.848 136.516l-12.524-7.62" stroke-width="1.2" stroke="#000" stroke-miterlimit="10" fill="none"/><path d="M149.324 128.895l-12.527-7.622" stroke-width="1.2" stroke="#00f" stroke-miterlimit="10" fill="none"/><path d="M155.754 140.887l-10.02-6.098" stroke-width="1.2" stroke="#000" stroke-miterlimit="10" fill="none"/><path d="M145.734 134.79l-10.02-6.1" stroke-width="1.2" stroke="#00f" stroke-miterlimit="10" fill="none"/><path d="M161.848 136.516l12.863-7.036" stroke-width="1.2" stroke="#000" stroke-miterlimit="10" fill="none"/><path d="M174.71 129.48l12.864-7.035" stroke-width="1.2" stroke="#00f" stroke-miterlimit="10" fill="none"/><path d="M132.797 114.273h9v14h-9zm0 0" fill="#fff"/><use xlink:href="#a" x="132.797" y="125.412" fill="#00f"/><path d="M187.574 122.445l12.524 7.62" stroke-width="1.2" stroke="#00f" stroke-miterlimit="10" fill="none"/><path d="M200.098 130.066l12.523 7.62M188.25 93.13l-.34 14.66" stroke-width="1.2" stroke="#000" stroke-miterlimit="10" fill="none"/><path d="M187.91 107.79l-.336 14.655" stroke-width="1.2" stroke="#00f" stroke-miterlimit="10" fill="none"/><path d="M183.574 115.445h9v14h-9zm0 0" fill="#fff"/><use xlink:href="#a" x="183.574" y="126.584" fill="#00f"/><path d="M212.62 137.688l25.728-14.07M238.348 123.617l.34-14.656" stroke-width="1.2" stroke="#000" stroke-miterlimit="10" fill="none"/><path d="M238.688 108.96l.335-14.655M239.023 94.305L226.5 86.68" stroke-width="1.2" stroke="#00f" stroke-miterlimit="10" fill="none"/><path d="M226.5 86.68l-12.523-7.62" stroke-width="1.2" stroke="#000" stroke-miterlimit="10" fill="none"/><path d="M239.023 94.305l12.864-7.04" stroke-width="1.2" stroke="#00f" stroke-miterlimit="10" fill="none"/><path d="M251.887 87.266l12.863-7.036" stroke-width="1.2" stroke="#000" stroke-miterlimit="10" fill="none"/><path d="M235.023 87.305h9v14h-9zm0 0" fill="#fff"/><use xlink:href="#a" x="235.023" y="98.443" fill="#00f"/><path d="M213.977 79.06L188.25 93.13" stroke-width="1.2" stroke="#000" stroke-miterlimit="10" fill="none"/></g></svg>
